app/images/icons/time.svg

<svg xmlns="http://www.w3.org/2000/svg" preserveAspectRatio="xMidYMid" width="20" height="20"><path d="M10 10.832a.833.833 0 01-.833-.833V4.166a.834.834 0 111.666 0v5h3.334a.833.833 0 010 1.666H10zm0 9.167c-5.514 0-10-4.486-10-10s4.486-10 10-10c2.252 0 4.458.767 6.21 2.16a.832.832 0 11-1.037 1.304A8.237 8.237 0 0010 1.666c-4.595 0-8.333 3.738-8.333 8.333 0 4.595 3.738 8.333 8.333 8.333 4.595 0 8.333-3.738 8.333-8.333a8.237 8.237 0 00-.825-3.624.834.834 0 011.5-.727A9.903 9.903 0 0120 9.999c0 5.514-4.486 10-10 10z" fill="#8d8d8d" fill-rule="evenodd"/></svg>

<svg xmlns="http://www.w3.org/2000/svg" xmlns:xlink="http://www.w3.org/1999/xlink" preserveAspectRatio="xMidYMid" width="20" height="20" viewBox="0 0 20 20">
  <defs>
    <style>
      .cls-1 {
        fill: #8d8d8d;
        fill-rule: evenodd;
      }
    </style>
  </defs>
  <path d="M10.000,10.832 C9.540,10.832 9.167,10.459 9.167,9.999 L9.167,4.166 C9.167,3.706 9.540,3.332 10.000,3.332 C10.460,3.332 10.833,3.706 10.833,4.166 L10.833,9.166 L14.167,9.166 C14.627,9.166 15.000,9.539 15.000,9.999 C15.000,10.459 14.627,10.832 14.167,10.832 L10.000,10.832 ZM10.000,19.999 C4.486,19.999 -0.000,15.513 -0.000,9.999 C-0.000,4.485 4.486,-0.001 10.000,-0.001 C12.252,-0.001 14.458,0.766 16.210,2.159 C16.571,2.445 16.631,2.969 16.344,3.329 C16.058,3.690 15.532,3.750 15.173,3.463 C13.693,2.288 11.904,1.666 10.000,1.666 C5.405,1.666 1.667,5.404 1.667,9.999 C1.667,14.594 5.405,18.332 10.000,18.332 C14.595,18.332 18.333,14.594 18.333,9.999 C18.333,8.724 18.056,7.506 17.508,6.375 C17.308,5.960 17.481,5.462 17.895,5.261 C18.308,5.061 18.808,5.234 19.008,5.648 C19.666,7.007 20.000,8.471 20.000,9.999 C20.000,15.513 15.514,19.999 10.000,19.999 Z" class="cls-1"/>
</svg>
